Icons/com_whatsapp.svg

<svg viewBox="0 0 48 48" xmlns:xlink="http://www.w3.org/1999/xlink">
 <defs>
  <linearGradient id="0">
   <stop stop-opacity="0"/>
   <stop offset="1"/>
  </linearGradient>
  <linearGradient xlink:href="#0" id="1" gradientUnits="userSpaceOnUse" gradientTransform="translate(4e-7,-48)" y1="47" x2="0" y2="1"/>
  <clipPath id="2">
   <g transform="translate(0,-1004.3622)">
    <rect rx="4" y="1005.36" x="1" height="46" width="46" fill="#1890d0"/>
   </g>
  </clipPath>
  <clipPath id="3">
   <g transform="translate(0,-1004.3622)">
    <rect rx="4" y="1005.36" x="1" height="46" width="46" fill="#1890d0"/>
   </g>
  </clipPath>
 </defs>
 <g>
  <g transform="translate(0,-1004.3622)">
   <path d="m 5,1006.3622 c -2.216,0 -4,1.784 -4,4 l 0,37.25 c 0,2.216 1.784,4 4,4 l 38,0 c 2.216,0 4,-1.784 4,-4 l 0,-37.25 c 0,-2.216 -1.784,-4 -4,-4 l -38,0 z m -4,41.5 0,0.5 c 0,2.216 1.784,4 4,4 l 38,0 c 2.216,0 4,-1.784 4,-4 l 0,-0.5 c 0,2.216 -1.784,4 -4,4 l -38,0 c -2.216,0 -4,-1.784 -4,-4 z" opacity="0.02"/>
   <path d="m 1,1047.6122 0,0.25 c 0,2.216 1.784,4 4,4 l 38,0 c 2.216,0 4,-1.784 4,-4 l 0,-0.25 c 0,2.216 -1.784,4 -4,4 l -38,0 c -2.216,0 -4,-1.784 -4,-4 z" opacity="0.05"/>
   <rect width="46" height="46" x="1" y="1005.61" rx="4" opacity="0.1"/>
  </g>
 </g>
 <g>
  <g transform="translate(0,-1004.3622)">
   <rect rx="4" y="1005.36" x="1" height="46" width="46" fill="#74b36b"/>
  </g>
 </g>
 <g>
  <rect transform="scale(1,-1)" width="46" height="46" x="1" y="-46.998" rx="4" opacity="0.1" fill="url(#1)"/>
 </g>
 <g>
  <g clip-path="url(#2)">
   <g opacity="0.1">
    <g>
     <path d="M 25.226562 11.371094 C 18.914062 11.371094 13.800781 16.445312 13.800781 22.699219 C 13.800781 24.839844 14.398438 26.84375 15.441406 28.550781 L 13.378906 34.625 L 19.703125 32.617188 C 21.339844 33.515625 23.222656 34.027344 25.226562 34.027344 C 31.535156 34.027344 36.648438 28.957031 36.648438 22.699219 C 36.648438 16.445312 31.535156 11.371094 25.226562 11.371094 Z M 25.226562 32.222656 C 23.273438 32.222656 21.457031 31.644531 19.941406 30.648438 L 16.25 31.820312 L 17.449219 28.285156 C 16.300781 26.714844 15.621094 24.785156 15.621094 22.699219 C 15.621094 17.449219 19.929688 13.175781 25.226562 13.175781 C 30.519531 13.175781 34.828125 17.449219 34.828125 22.699219 C 34.828125 27.953125 30.519531 32.222656 25.226562 32.222656 Z M 25.226562 32.222656 " fill-rule="evenodd"/>
     <path d="M 22.546875 18.015625 C 22.359375 17.574219 22.21875 17.558594 21.933594 17.542969 C 21.835938 17.539062 21.726562 17.535156 21.613281 17.535156 C 21.242188 17.535156 20.863281 17.644531 20.632812 17.875 C 20.351562 18.160156 19.652344 18.824219 19.652344 20.191406 C 19.652344 21.558594 20.65625 22.878906 20.792969 23.0625 C 20.933594 23.25 22.753906 26.09375 25.578125 27.253906 C 27.785156 28.160156 28.441406 28.082031 28.945312 27.972656 C 29.675781 27.8125 30.597656 27.277344 30.828125 26.628906 C 31.0625 25.980469 31.0625 25.425781 30.992188 25.308594 C 30.921875 25.195312 30.734375 25.125 30.457031 24.984375 C 30.175781 24.847656 28.800781 24.175781 28.542969 24.082031 C 28.285156 23.988281 28.046875 24.019531 27.851562 24.289062 C 27.578125 24.664062 27.316406 25.046875 27.097656 25.273438 C 26.929688 25.453125 26.65625 25.480469 26.417969 25.378906 C 26.109375 25.25 25.238281 24.945312 24.167969 24 C 23.335938 23.265625 22.773438 22.355469 22.609375 22.078125 C 22.445312 21.800781 22.59375 21.636719 22.722656 21.484375 C 22.863281 21.3125 22.996094 21.1875 23.136719 21.027344 C 23.277344 20.863281 23.355469 20.777344 23.449219 20.589844 C 23.542969 20.40625 23.480469 20.214844 23.410156 20.078125 C 23.339844 19.9375 22.777344 18.570312 22.546875 18.015625 Z M 22.546875 18.015625 " fill-rule="evenodd"/>
    </g>
   </g>
  </g>
 </g>
 <g>
  <g clip-path="url(#3)">
   <g transform="translate(0,-1)">
    <g>
     <path d="M 25.226562 11.371094 C 18.914062 11.371094 13.800781 16.445312 13.800781 22.699219 C 13.800781 24.839844 14.398438 26.84375 15.441406 28.550781 L 13.378906 34.625 L 19.703125 32.617188 C 21.339844 33.515625 23.222656 34.027344 25.226562 34.027344 C 31.535156 34.027344 36.648438 28.957031 36.648438 22.699219 C 36.648438 16.445312 31.535156 11.371094 25.226562 11.371094 Z M 25.226562 32.222656 C 23.273438 32.222656 21.457031 31.644531 19.941406 30.648438 L 16.25 31.820312 L 17.449219 28.285156 C 16.300781 26.714844 15.621094 24.785156 15.621094 22.699219 C 15.621094 17.449219 19.929688 13.175781 25.226562 13.175781 C 30.519531 13.175781 34.828125 17.449219 34.828125 22.699219 C 34.828125 27.953125 30.519531 32.222656 25.226562 32.222656 Z M 25.226562 32.222656 " fill="#ffffff" fill-rule="evenodd"/>
     <path d="M 22.546875 18.015625 C 22.359375 17.574219 22.21875 17.558594 21.933594 17.542969 C 21.835938 17.539062 21.726562 17.535156 21.613281 17.535156 C 21.242188 17.535156 20.863281 17.644531 20.632812 17.875 C 20.351562 18.160156 19.652344 18.824219 19.652344 20.191406 C 19.652344 21.558594 20.65625 22.878906 20.792969 23.0625 C 20.933594 23.25 22.753906 26.09375 25.578125 27.253906 C 27.785156 28.160156 28.441406 28.082031 28.945312 27.972656 C 29.675781 27.8125 30.597656 27.277344 30.828125 26.628906 C 31.0625 25.980469 31.0625 25.425781 30.992188 25.308594 C 30.921875 25.195312 30.734375 25.125 30.457031 24.984375 C 30.175781 24.847656 28.800781 24.175781 28.542969 24.082031 C 28.285156 23.988281 28.046875 24.019531 27.851562 24.289062 C 27.578125 24.664062 27.316406 25.046875 27.097656 25.273438 C 26.929688 25.453125 26.65625 25.480469 26.417969 25.378906 C 26.109375 25.25 25.238281 24.945312 24.167969 24 C 23.335938 23.265625 22.773438 22.355469 22.609375 22.078125 C 22.445312 21.800781 22.59375 21.636719 22.722656 21.484375 C 22.863281 21.3125 22.996094 21.1875 23.136719 21.027344 C 23.277344 20.863281 23.355469 20.777344 23.449219 20.589844 C 23.542969 20.40625 23.480469 20.214844 23.410156 20.078125 C 23.339844 19.9375 22.777344 18.570312 22.546875 18.015625 Z M 22.546875 18.015625 " fill="#ffffff" fill-rule="evenodd"/>
    </g>
   </g>
  </g>
 </g>
 <g>
  <g transform="translate(0,-1004.3622)">
   <path d="m 1,1043.3622 0,4 c 0,2.216 1.784,4 4,4 l 38,0 c 2.216,0 4,-1.784 4,-4 l 0,-4 c 0,2.216 -1.784,4 -4,4 l -38,0 c -2.216,0 -4,-1.784 -4,-4 z" opacity="0.1"/>
  </g>
 </g>
</svg>

<svg viewBox="0 0 48 48"><defs><linearGradient id="linearGradient3764" x1="1" x2="47" gradientUnits="userSpaceOnUse" gradientTransform="translate(-48.000001,0.00221467)"><stop stop-color="#67ac5e" stop-opacity="1"/><stop offset="1" stop-color="#74b36b" stop-opacity="1"/></linearGradient><clipPath id="clipPath-424856954"><g transform="translate(0,-1004.3622)"><rect rx="4" y="1005.36" x="1" height="46" width="46" fill="#1890d0"/></g></clipPath><clipPath id="clipPath-438521757"><g transform="translate(0,-1004.3622)"><rect rx="4" y="1005.36" x="1" height="46" width="46" fill="#1890d0"/></g></clipPath></defs><g><path d="m 1 43 l 0 0.25 c 0 2.216 1.784 4 4 4 l 38 0 c 2.216 0 4 -1.784 4 -4 l 0 -0.25 c 0 2.216 -1.784 4 -4 4 l -38 0 c -2.216 0 -4 -1.784 -4 -4 z m 0 0.5 l 0 0.5 c 0 2.216 1.784 4 4 4 l 38 0 c 2.216 0 4 -1.784 4 -4 l 0 -0.5 c 0 2.216 -1.784 4 -4 4 l -38 0 c -2.216 0 -4 -1.784 -4 -4 z" opacity="0.02"/><path d="m 1 43.25 l 0 0.25 c 0 2.216 1.784 4 4 4 l 38 0 c 2.216 0 4 -1.784 4 -4 l 0 -0.25 c 0 2.216 -1.784 4 -4 4 l -38 0 c -2.216 0 -4 -1.784 -4 -4 z" opacity="0.05"/><path d="m 1 43 l 0 0.25 c 0 2.216 1.784 4 4 4 l 38 0 c 2.216 0 4 -1.784 4 -4 l 0 -0.25 c 0 2.216 -1.784 4 -4 4 l -38 0 c -2.216 0 -4 -1.784 -4 -4 z" opacity="0.1"/></g><g><rect width="46" height="46" x="-47" y="1" rx="4" transform="matrix(0,-1,1,0,0,0)" fill="url(#linearGradient3764)" fill-opacity="1"/></g><g><g clip-path="url(#clipPath-424856954)"><g opacity="0.1"><!-- color: #74b36b --><g><path d="m 25.23 11.371 c -6.313 0 -11.426 5.074 -11.426 11.328 c 0 2.141 0.598 4.145 1.641 5.852 l -2.063 6.074 l 6.324 -2.01 c 1.637 0.898 3.52 1.41 5.523 1.41 c 6.309 0 11.422 -5.07 11.422 -11.328 c 0 -6.254 -5.113 -11.328 -11.422 -11.328 m 0 20.852 c -1.953 0 -3.77 -0.578 -5.285 -1.574 l -3.691 1.172 l 1.199 -3.535 c -1.148 -1.57 -1.828 -3.5 -1.828 -5.586 c 0 -5.25 4.309 -9.523 9.605 -9.523 c 5.293 0 9.602 4.273 9.602 9.523 c 0 5.254 -4.309 9.523 -9.602 9.523 m 0 0" fill-rule="evenodd" fill="#000"/><path d="m 22.547 18.02 c -0.188 -0.441 -0.328 -0.457 -0.613 -0.473 c -0.098 -0.004 -0.207 -0.008 -0.32 -0.008 c -0.371 0 -0.75 0.109 -0.98 0.34 c -0.281 0.285 -0.98 0.949 -0.98 2.316 c 0 1.367 1 2.688 1.141 2.871 c 0.141 0.188 1.961 3.03 4.785 4.191 c 2.207 0.906 2.863 0.828 3.367 0.719 c 0.73 -0.16 1.652 -0.695 1.883 -1.344 c 0.234 -0.648 0.234 -1.203 0.164 -1.32 c -0.07 -0.113 -0.258 -0.184 -0.535 -0.324 c -0.281 -0.137 -1.656 -0.809 -1.914 -0.902 c -0.258 -0.094 -0.496 -0.063 -0.691 0.207 c -0.273 0.375 -0.535 0.758 -0.754 0.984 c -0.168 0.18 -0.441 0.207 -0.68 0.105 c -0.309 -0.129 -1.18 -0.434 -2.25 -1.379 c -0.832 -0.734 -1.395 -1.645 -1.559 -1.922 c -0.164 -0.277 -0.016 -0.441 0.113 -0.594 c 0.141 -0.172 0.273 -0.297 0.414 -0.457 c 0.141 -0.164 0.219 -0.25 0.313 -0.438 c 0.094 -0.184 0.031 -0.375 -0.039 -0.512 c -0.07 -0.141 -0.633 -1.508 -0.863 -2.063 m 0 0" fill-rule="evenodd" fill="#000"/></g></g></g></g><g><g clip-path="url(#clipPath-438521757)"><g transform="translate(0,-1)"><!-- color: #74b36b --><g><path d="m 25.23 11.371 c -6.313 0 -11.426 5.074 -11.426 11.328 c 0 2.141 0.598 4.145 1.641 5.852 l -2.063 6.074 l 6.324 -2.01 c 1.637 0.898 3.52 1.41 5.523 1.41 c 6.309 0 11.422 -5.07 11.422 -11.328 c 0 -6.254 -5.113 -11.328 -11.422 -11.328 m 0 20.852 c -1.953 0 -3.77 -0.578 -5.285 -1.574 l -3.691 1.172 l 1.199 -3.535 c -1.148 -1.57 -1.828 -3.5 -1.828 -5.586 c 0 -5.25 4.309 -9.523 9.605 -9.523 c 5.293 0 9.602 4.273 9.602 9.523 c 0 5.254 -4.309 9.523 -9.602 9.523 m 0 0" fill="#fff" fill-rule="evenodd"/><path d="m 22.547 18.02 c -0.188 -0.441 -0.328 -0.457 -0.613 -0.473 c -0.098 -0.004 -0.207 -0.008 -0.32 -0.008 c -0.371 0 -0.75 0.109 -0.98 0.34 c -0.281 0.285 -0.98 0.949 -0.98 2.316 c 0 1.367 1 2.688 1.141 2.871 c 0.141 0.188 1.961 3.03 4.785 4.191 c 2.207 0.906 2.863 0.828 3.367 0.719 c 0.73 -0.16 1.652 -0.695 1.883 -1.344 c 0.234 -0.648 0.234 -1.203 0.164 -1.32 c -0.07 -0.113 -0.258 -0.184 -0.535 -0.324 c -0.281 -0.137 -1.656 -0.809 -1.914 -0.902 c -0.258 -0.094 -0.496 -0.063 -0.691 0.207 c -0.273 0.375 -0.535 0.758 -0.754 0.984 c -0.168 0.18 -0.441 0.207 -0.68 0.105 c -0.309 -0.129 -1.18 -0.434 -2.25 -1.379 c -0.832 -0.734 -1.395 -1.645 -1.559 -1.922 c -0.164 -0.277 -0.016 -0.441 0.113 -0.594 c 0.141 -0.172 0.273 -0.297 0.414 -0.457 c 0.141 -0.164 0.219 -0.25 0.313 -0.438 c 0.094 -0.184 0.031 -0.375 -0.039 -0.512 c -0.07 -0.141 -0.633 -1.508 -0.863 -2.063 m 0 0" fill="#fff" fill-rule="evenodd"/></g></g></g></g><g><g transform="translate(0,-1004.3622)"><path d="m 1 1043.36 0 4 c 0 2.216 1.784 4 4 4 l 38 0 c 2.216 0 4 -1.784 4 -4 l 0 -4 c 0 2.216 -1.784 4 -4 4 l -38 0 c -2.216 0 -4 -1.784 -4 -4 z" opacity="0.1"/></g></g></svg>
